X:1
T:Zdodea mi se Mamo
O:Macedoine (Mer Egee)
M:7/8
L:1/8
K:F
cfc {fe} f2 g2 | d2 c c4 | cfc {fe} f2 g2 | d2 c cdef |
|: g/f/ga gf fe | d2 c gaag | g/f/ga gf fe |1 d2 c c2 ef :|2 d2 c c2 c2 ||
|:{e} f2 c {fe} f2 g2 | d2 c c2 c2 | {e} f2 c {fe} f2 g2 | d2 c c2 AB |
c2 c dc BA | G2 F ef fg | e2 d ed dc | c3-c2 AB |
c2 c dc BA | G2 F ef fg | e2 d ed dc | c3-c2 z2 ||
|: g/f/ga gf fe | d2 c gaag | g/f/ga gf fe |1 d2 c c2 ef :|2 d2 c c2 c2 ||
